packages/katcn/src/icons/svg/volume.svg

<svg width="24" height="25" viewBox="0 0 24 25" fill="none" xmlns="http://www.w3.org/2000/svg">
<path fill-rule="evenodd" clip-rule="evenodd" d="M10.7509 2.94687C12.5039 1.38735 15.3 2.66266 15.3 5.00802V19.408C15.3 21.6262 12.6407 23.0299 10.7704 21.485C8.40679 19.6144 6.16283 18.0557 3.83722 16.7946C2.1047 15.9207 1 14.0782 1 12.208C1 10.2483 2.09665 8.39513 3.84581 7.51709C6.46245 6.1597 8.69829 4.60687 10.7509 2.94687ZM13.3 5.00802C13.3 4.36394 12.5213 4.04015 12.0727 4.44796C12.0585 4.46081 12.044 4.47325 12.0292 4.48527C9.88887 6.21791 7.53259 7.8583 4.76032 9.29578L4.74721 9.30245C3.70043 9.82584 3 10.9704 3 12.208C3 13.3323 3.68868 14.4843 4.74721 15.0136C4.75699 15.0185 4.76668 15.0235 4.77628 15.0287C7.24295 16.3648 9.59217 18.0014 12.0207 19.924C12.0246 19.927 12.0284 19.9301 12.0323 19.9333C12.0349 19.9354 12.0376 19.9376 12.0402 19.9398C12.5694 20.3808 13.3 19.9856 13.3 19.408V5.00802Z" fill="black"/>
<path fill-rule="evenodd" clip-rule="evenodd" d="M17.2318 9.36781C17.5853 8.94353 18.2159 8.8862 18.6402 9.23977C19.5173 9.97071 19.9 11.0817 19.9 12.108C19.9 13.2132 19.3643 14.2579 18.7071 14.9151C18.3166 15.3056 17.6834 15.3056 17.2929 14.9151C16.9024 14.5246 16.9024 13.8914 17.2929 13.5009C17.6357 13.1581 17.9 12.6028 17.9 12.108C17.9 11.5342 17.6827 11.0453 17.3598 10.7762C16.9355 10.4226 16.8782 9.79208 17.2318 9.36781Z" fill="black"/>
<path fill-rule="evenodd" clip-rule="evenodd" d="M17.1829 5.80929C17.4031 5.30281 17.9922 5.07074 18.4987 5.29095C21.1567 6.44658 23 9.10214 23 12.208C23 15.3206 21.149 17.9793 18.3846 19.1311C17.8748 19.3435 17.2893 19.1024 17.0769 18.5926C16.8645 18.0828 17.1056 17.4974 17.6154 17.2849C19.651 16.4368 21 14.4955 21 12.208C21 9.9139 19.6433 7.96946 17.7013 7.12509C17.1948 6.90488 16.9627 6.31578 17.1829 5.80929Z" fill="black"/>
</svg>

<svg xmlns="http://www.w3.org/2000/svg" fill="none" viewBox="0 0 24 25"><path fill="#000" fill-rule="evenodd" d="M10.75 2.947c1.754-1.56 4.55-.284 4.55 2.061v14.4c0 2.218-2.66 3.622-4.53 2.077-2.363-1.87-4.607-3.43-6.933-4.69C2.105 15.92 1 14.078 1 12.208c0-1.96 1.097-3.813 2.846-4.69C6.462 6.16 8.698 4.606 10.75 2.946m2.55 2.061c0-.644-.779-.968-1.227-.56l-.044.037C9.89 6.218 7.533 7.858 4.76 9.295l-.013.007C3.7 9.826 3 10.97 3 12.208c0 1.124.689 2.276 1.747 2.806l.03.015C7.242 16.365 9.591 18 12.02 19.924l.02.016c.528.44 1.259.046 1.259-.532zm3.932 4.361a1 1 0 0 1 1.408-.128c.877.73 1.26 1.842 1.26 2.868 0 1.105-.536 2.15-1.193 2.807a1 1 0 0 1-1.414-1.414c.343-.343.607-.898.607-1.393 0-.574-.217-1.063-.54-1.332a1 1 0 0 1-.128-1.408" clip-rule="evenodd"/><path fill="#000" fill-rule="evenodd" d="M17.183 5.81a1 1 0 0 1 1.316-.519A7.51 7.51 0 0 1 23 12.208c0 3.113-1.851 5.771-4.615 6.923a1 1 0 0 1-.77-1.846A5.45 5.45 0 0 0 21 12.208a5.51 5.51 0 0 0-3.299-5.083 1 1 0 0 1-.518-1.316" clip-rule="evenodd"/></svg>
